X:2
T:Foxhunter's Jig, The
R:slip jig
H:There's also a 2-part version in G called "Nead na Lachan sa Mhuta"
H:(The Duck's Nest in the Ditch).
H:Also similar to "The Humours of Derrykissane", #33, #34
Z:id:hn-slipjig-2
M:9/8
K:D
FDF FDF G2E|FDF FDF E2D|FDF FDF G2B|AFD DEF E2D:|
|:~B3 BAG FGA|B2E E2F GFE|ABc dcB ABc|d2D DEF E2D:|
|:~f3 fed g2e|~f3 fed e2d|~f3 fed g2b|afd def e2d:|
|:gfe dcB AGA|B2E E2F G2B|ABc dcB ABc|d2D DEF E2D:|
<end>
<start>
